findly-builder/apps/searchassist/src/assets/images/pricing-plan/plan-order/payment-confirm-success.svg

<svg width="139" height="103" viewBox="0 0 139 103" fill="none" xmlns="http://www.w3.org/2000/svg">
<path fill-rule="evenodd" clip-rule="evenodd" d="M68.5 26.125C49.5156 26.125 34.125 41.5156 34.125 60.5C34.125 79.4844 49.5156 94.875 68.5 94.875C87.4844 94.875 102.875 79.4844 102.875 60.5C102.875 41.5156 87.4844 26.125 68.5 26.125ZM83.4 54.6875C83.6744 54.3739 83.8832 54.0086 84.0143 53.613C84.1454 53.2175 84.1961 52.7997 84.1633 52.3843C84.1306 51.9689 84.0151 51.5643 83.8237 51.1942C83.6322 50.824 83.3687 50.496 83.0486 50.2292C82.7285 49.9624 82.3582 49.7624 81.9597 49.6408C81.5611 49.5193 81.1423 49.4786 80.7278 49.5213C80.3133 49.564 79.9115 49.6892 79.5461 49.8895C79.1807 50.0898 78.859 50.3611 78.6 50.6875L65.1625 66.8094L58.2094 59.8531C57.62 59.2839 56.8306 58.9689 56.0112 58.976C55.1919 58.9831 54.4081 59.3118 53.8287 59.8912C53.2493 60.4706 52.9206 61.2544 52.9135 62.0737C52.9064 62.8931 53.2214 63.6825 53.7906 64.2719L63.1656 73.6469C63.4727 73.9537 63.8403 74.1933 64.245 74.3502C64.6498 74.5071 65.0828 74.578 65.5165 74.5583C65.9501 74.5386 66.3749 74.4287 66.7638 74.2358C67.1526 74.0428 67.497 73.7709 67.775 73.4375L83.4 54.6875Z" fill="#28A745"/>
<path opacity="0.8" d="M22.375 35.375L6.625 19.625M28 27.5H1H28ZM14.5 14V41V14ZM6.625 35.375L22.375 19.625L6.625 35.375Z" stroke="#93D3A2" stroke-width="1.5" stroke-linecap="round" stroke-linejoin="round"/>
<path opacity="0.3" d="M127.292 11.2917L119.708 3.70833M130 7.5H117H130ZM123.5 1V14V1ZM119.708 11.2917L127.292 3.70833L119.708 11.2917Z" stroke="#93D3A2" stroke-width="1.5" stroke-linecap="round" stroke-linejoin="round"/>
<path opacity="0.4" d="M135.292 99.2917L127.708 91.7083M138 95.5H125H138ZM131.5 89V102V89ZM127.708 99.2917L135.292 91.7083L127.708 99.2917Z" stroke="#93D3A2" stroke-width="1.5" stroke-linecap="round" stroke-linejoin="round"/>
<path opacity="0.3" d="M25.2917 99.2917L17.7083 91.7083M28 95.5H15H28ZM21.5 89V102V89ZM17.7083 99.2917L25.2917 91.7083L17.7083 99.2917Z" stroke="#93D3A2" stroke-width="1.5" stroke-linecap="round" stroke-linejoin="round"/>
<path opacity="0.6" d="M121.25 61.25L110.75 50.75M125 56H107H125ZM116 47V65V47ZM110.75 61.25L121.25 50.75L110.75 61.25Z" stroke="#93D3A2" stroke-width="1.5" stroke-linecap="round" stroke-linejoin="round"/>
</svg>

<svg width="139" height="103" fill="none" xmlns="http://www.w3.org/2000/svg"><path fill-rule="evenodd" clip-rule="evenodd" d="M68.5 26.125c-18.984 0-34.375 15.39-34.375 34.375 0 18.984 15.39 34.375 34.375 34.375 18.984 0 34.375-15.39 34.375-34.375 0-18.984-15.39-34.375-34.375-34.375Zm14.9 28.563a3.124 3.124 0 1 0-4.8-4l-13.438 16.12-6.953-6.956a3.125 3.125 0 0 0-4.418 4.419l9.375 9.375a3.126 3.126 0 0 0 4.609-.21L83.4 54.688Z" fill="#28A745"/><path opacity=".8" d="m22.375 35.375-15.75-15.75M28 27.5H1h27ZM14.5 14v27-27ZM6.625 35.375l15.75-15.75-15.75 15.75Z" stroke="#93D3A2" stroke-width="1.5" stroke-linecap="round" stroke-linejoin="round"/><path opacity=".3" d="m127.292 11.292-7.584-7.584M130 7.5h-13 13ZM123.5 1v13V1Zm-3.792 10.292 7.584-7.584-7.584 7.584Z" stroke="#93D3A2" stroke-width="1.5" stroke-linecap="round" stroke-linejoin="round"/><path opacity=".4" d="m135.292 99.292-7.584-7.584M138 95.5h-13 13Zm-6.5-6.5v13-13Zm-3.792 10.292 7.584-7.584-7.584 7.584Z" stroke="#93D3A2" stroke-width="1.5" stroke-linecap="round" stroke-linejoin="round"/><path opacity=".3" d="m25.292 99.292-7.584-7.584M28 95.5H15h13ZM21.5 89v13-13Zm-3.792 10.292 7.584-7.584-7.584 7.584Z" stroke="#93D3A2" stroke-width="1.5" stroke-linecap="round" stroke-linejoin="round"/><path opacity=".6" d="m121.25 61.25-10.5-10.5M125 56h-18 18Zm-9-9v18-18Zm-5.25 14.25 10.5-10.5-10.5 10.5Z" stroke="#93D3A2" stroke-width="1.5" stroke-linecap="round" stroke-linejoin="round"/></svg>
